assets/Student/Medium-Dark/Flat/student_flat_medium-dark.svg

<svg width="32" height="32" viewBox="0 0 32 32" fill="none" xmlns="http://www.w3.org/2000/svg">
<path d="M11.4116 16.5H20.5867C19.1908 15.8579 17.6372 15.5 16 15.5C14.3628 15.5 12.8085 15.8579 11.4116 16.5Z" fill="#212121"/>
<path d="M23 18.5H9.00006L7.00006 24L9.00006 30H23.0001L25.0001 24L23 18.5Z" fill="#212121"/>
<path d="M23 30L23 18.5936C21.6303 21.054 19.0178 22.72 16 22.72C12.9833 22.72 10.3625 21.0551 9.00005 18.5961V30H5.00005V26.5C4.99005 23.09 6.57005 20.03 9.00005 18V18.0128C10.9012 16.4481 13.3391 15.5 16 15.5C18.661 15.5 21.0989 16.4388 23 18.0117V18C25.45 20.02 27 23.09 27 26.5V30H23Z" fill="black"/>
<path d="M12.5 29.99V24.74C12.5 24.46 12.28 24.24 12 24.24C11.72 24.24 11.5 24.46 11.5 24.74V29.99H12.5Z" fill="black"/>
<path d="M16.5 29.99V24.74C16.5 24.46 16.28 24.24 16 24.24C15.72 24.24 15.5 24.46 15.5 24.74V29.99H16.5Z" fill="black"/>
<path d="M20.5 29.99V24.74C20.5 24.46 20.28 24.24 20 24.24C19.72 24.24 19.5 24.46 19.5 24.74V29.99H20.5Z" fill="black"/>
<path d="M25.33 13.7799C25.22 13.4299 24.9 13.1699 24.51 13.1699C24.12 13.1699 23.8 13.4199 23.69 13.7799L23.11 15.8899C23.04 16.1299 23.22 16.3699 23.47 16.3699H25.54C25.79 16.3699 25.97 16.1299 25.9 15.8899L25.33 13.7799Z" fill="#F9C23C"/>
<path d="M14.1156 16.8354L15.07 16H17L17.8299 16.9419C17.6394 17.4491 17.3299 17.9099 16.92 18.28L16.27 18.86C16.11 19 15.88 19 15.72 18.86L15.07 18.28C14.6316 17.8842 14.3045 17.3846 14.1156 16.8354Z" fill="#8B5C56"/>
<path d="M22.3799 5.29C22.0799 4.77 21.6099 4.41 21.0899 4.23C20.5199 4.04 20.0199 3.66 19.7099 3.15C19.2899 2.46 18.5299 2 17.6699 2C17.3399 2 17.0199 2.07 16.7399 2.19C16.3499 2.36 15.9099 2.36 15.5199 2.19C15.2299 2.07 14.9099 2 14.5799 2C13.7299 2 12.9899 2.44 12.5699 3.11C12.2399 3.63 11.7399 4.03 11.1599 4.23C10.6099 4.42 10.1299 4.81 9.82991 5.36C9.39991 6.17 9.48991 7.12 9.97991 7.84C10.1599 8.1 10.2499 8.4 10.2499 8.72V12.89C10.2499 13.82 10.8399 14.65 11.7199 14.95L13.6099 15.6V8.17C13.7599 8.02 13.8899 7.86 13.9999 7.67C14.1699 7.38 14.2699 7.06 14.2999 6.75C14.3899 6.76 14.4899 6.77 14.5799 6.77C15.1699 6.77 15.7099 6.56 16.1199 6.2C16.5399 6.55 17.0699 6.77 17.6599 6.77C17.7599 6.77 17.8499 6.76 17.9399 6.75C17.9799 7.07 18.0699 7.38 18.2399 7.67C18.3499 7.86 18.4799 8.02 18.6199 8.17V15.6L20.5099 14.95C21.3899 14.65 21.9799 13.82 21.9799 12.89V8.72C21.9799 8.41 22.0799 8.1 22.2599 7.84C22.7799 7.11 22.8599 6.12 22.3799 5.29Z" fill="#2D242D"/>
<path d="M12.113 5.55615L14.5899 5.96011C15.388 6.07748 16.1923 6.10301 16.9931 6.03191C17.4283 6.38622 17.9798 6.59012 18.5599 6.59012H19.9899C20.7899 6.63012 21.4199 7.30012 21.3999 8.11012L21.3887 8.593L21.0799 13.5601C20.8199 15.5301 19.1399 17.0001 17.1499 17.0001H15.2499C13.2599 17.0001 11.5799 15.5301 11.3199 13.5601L10.9601 8.0781C10.9694 7.07554 11.4137 6.17485 12.113 5.55615Z" fill="#966661"/>
<path d="M11.0162 8.93213C10.19 9.03264 9.54993 9.73649 9.54993 10.5898C9.54993 11.5121 10.2976 12.2598 11.2199 12.2598C11.2248 12.2598 11.2297 12.2598 11.2345 12.2598L11.8865 10.5898L11.0162 8.93213Z" fill="#8B5C56"/>
<path d="M21.1611 12.2539C22.0173 12.1823 22.69 11.4646 22.69 10.5898C22.69 9.78619 22.1223 9.11514 21.3661 8.95574L19.7295 10.5898L21.1611 12.2539Z" fill="#8B5C56"/>
<path d="M12.113 5.55615L14.5899 5.96011C15.388 6.07748 16.1923 6.10301 16.9931 6.03191C17.4283 6.38622 17.9798 6.59012 18.5599 6.59012H19.9899C20.7899 6.63012 21.4199 7.30012 21.3999 8.11012L21.3887 8.593L21.0799 13.5601C20.8199 15.5301 19.1399 17.0001 17.1499 17.0001H15.2499C13.2599 17.0001 11.5799 15.5301 11.3199 13.5601L10.9601 8.0781C10.9694 7.07554 11.4137 6.17485 12.113 5.55615Z" fill="#966661"/>
<path d="M16.13 13.6901C15.59 13.6901 15.08 13.5601 14.65 13.3301C14.5 13.2501 14.35 13.4201 14.44 13.5601C14.8 14.1101 15.42 14.4801 16.13 14.4801C16.84 14.4801 17.46 14.1101 17.82 13.5601C17.91 13.4201 17.75 13.2601 17.61 13.3301C17.18 13.5601 16.68 13.6901 16.13 13.6901Z" fill="#990838"/>
<path d="M15.82 10.3102L15.29 12.0202C15.18 12.3702 15.44 12.7302 15.81 12.7302H16.59C16.96 12.7302 17.22 12.3702 17.11 12.0202L16.58 10.3102C16.47 9.94021 15.93 9.94021 15.82 10.3102Z" fill="#75443E"/>
<path d="M12.3 10.2802C12.46 9.6602 13.02 9.2002 13.69 9.2002C14.38 9.2002 14.96 9.7002 15.09 10.3502C15.12 10.5002 15.01 10.6302 14.86 10.6302H12.58C12.4 10.6302 12.26 10.4602 12.3 10.2802Z" fill="white"/>
<path d="M19.97 10.2802C19.81 9.6602 19.25 9.2002 18.58 9.2002C17.88 9.2002 17.31 9.7002 17.19 10.3502C17.16 10.5002 17.27 10.6302 17.42 10.6302H19.7C19.88 10.6302 20.01 10.4602 19.97 10.2802Z" fill="white"/>
<path d="M12.99 10.39C12.99 9.88998 13.4 9.47998 13.9 9.47998C14.4 9.47998 14.81 9.88998 14.81 10.4C14.81 10.48 14.8 10.56 14.78 10.63H13.02C13 10.55 12.99 10.47 12.99 10.39Z" fill="#7D4533"/>
<path d="M19.28 10.39C19.28 9.89001 18.87 9.48001 18.37 9.48001C17.86 9.48001 17.45 9.89001 17.46 10.39C17.46 10.47 17.47 10.55 17.49 10.63H19.25C19.27 10.55 19.28 10.47 19.28 10.39Z" fill="#7D4533"/>
<path d="M13.9 9.87012C14.19 9.87012 14.42 10.1001 14.42 10.3901C14.42 10.4801 14.4 10.5601 14.36 10.6301H13.44C13.4 10.5601 13.38 10.4801 13.38 10.3901C13.38 10.1001 13.61 9.87012 13.9 9.87012Z" fill="black"/>
<path d="M18.37 9.87012C18.08 9.87012 17.85 10.1001 17.85 10.3901C17.85 10.4801 17.87 10.5601 17.91 10.6301H18.83C18.87 10.5601 18.89 10.4801 18.89 10.3901C18.89 10.1001 18.66 9.87012 18.37 9.87012Z" fill="black"/>
<path d="M13.7499 10.0301C13.7499 10.1185 13.6783 10.1901 13.5899 10.1901C13.5016 10.1901 13.4299 10.1185 13.4299 10.0301C13.4299 9.94175 13.5016 9.87012 13.5899 9.87012C13.6783 9.87012 13.7499 9.94175 13.7499 10.0301Z" fill="white"/>
<path d="M18.2399 10.0301C18.2399 10.1185 18.1683 10.1901 18.0799 10.1901C17.9916 10.1901 17.9199 10.1185 17.9199 10.0301C17.9199 9.94175 17.9916 9.87012 18.0799 9.87012C18.1683 9.87012 18.2399 9.94175 18.2399 10.0301Z" fill="white"/>
<path d="M24.11 3.6H21.3461L22.3199 5.19001L17.6599 5.95001C16.6399 6.11001 15.6099 6.11001 14.5899 5.96001L9.92993 5.20001L10.9099 3.60001L8.13997 3.6C7.69997 3.6 7.33997 3.24 7.33997 2.8C7.33997 2.36 7.69997 2 8.13997 2H24.1C24.54 2 24.9 2.36 24.9 2.8L24.91 2.79999V11.68C25.18 11.82 25.37 12.11 25.37 12.44C25.37 12.92 24.99 13.3 24.51 13.3C24.03 13.3 23.65 12.91 23.65 12.44C23.65 12.11 23.84 11.82 24.11 11.68L24.11 3.6C24.1099 3.6 24.11 3.6 24.11 3.6Z" fill="#1C1C1C"/>
<path d="M12.4355 8.00558C12.3162 8.09857 12.2948 8.27068 12.3878 8.38999C12.4808 8.5093 12.6529 8.53064 12.7722 8.43765L12.867 8.37554C12.9358 8.33424 13.0392 8.2788 13.172 8.22636C13.4376 8.12147 13.8166 8.03007 14.2719 8.08364C14.4221 8.10131 14.5582 7.99385 14.5759 7.84362C14.5936 7.69338 14.4861 7.55726 14.3359 7.53959C13.7712 7.47315 13.3002 7.58675 12.9708 7.71686C12.806 7.78192 12.6757 7.85148 12.5851 7.90581L12.4355 8.00558Z" fill="#372128"/>
<path d="M19.8083 8.03388C19.9276 8.12687 19.9491 8.29912 19.8561 8.41843C19.7632 8.53768 19.5912 8.55906 19.4719 8.46625L19.4697 8.46465C19.4666 8.46232 19.4609 8.45824 19.4529 8.45268C19.4368 8.44156 19.4113 8.4246 19.377 8.40399C19.3081 8.36269 19.2047 8.30724 19.0719 8.25481C18.8064 8.14991 18.4274 8.05851 17.9721 8.11208C17.8218 8.12975 17.6857 8.02229 17.668 7.87206C17.6504 7.72182 17.7578 7.58571 17.9081 7.56803C18.4728 7.5016 18.9438 7.6152 19.2732 7.7453C19.4379 7.81037 19.5683 7.87992 19.6588 7.93425C19.7041 7.96145 19.7397 7.98495 19.7648 8.00235C19.7774 8.01105 19.7873 8.01824 19.7946 8.02361L19.8036 8.03028L19.8065 8.03253L19.8083 8.03388Z" fill="#372128"/>
</svg>

<svg xmlns="http://www.w3.org/2000/svg" width="32" height="32" fill="none"><path fill="#212121" d="M11.412 16.5h9.175c-1.396-.642-2.95-1-4.587-1-1.637 0-3.191.358-4.588 1ZM23 18.5H9L7 24l2 6h14l2-6-2-5.5Z"/><path fill="#000" d="M23 30V18.594c-1.37 2.46-3.982 4.126-7 4.126a7.99 7.99 0 0 1-7-4.124V30H5v-3.5c-.01-3.41 1.57-6.47 4-8.5v.013a10.982 10.982 0 0 1 7-2.513c2.661 0 5.099.939 7 2.512V18c2.45 2.02 4 5.09 4 8.5V30h-4Z"/><path fill="#000" d="M12.5 29.99v-5.25c0-.28-.22-.5-.5-.5s-.5.22-.5.5v5.25h1ZM16.5 29.99v-5.25c0-.28-.22-.5-.5-.5s-.5.22-.5.5v5.25h1ZM20.5 29.99v-5.25c0-.28-.22-.5-.5-.5s-.5.22-.5.5v5.25h1Z"/><path fill="#F9C23C" d="M25.33 13.78a.861.861 0 0 0-.82-.61c-.39 0-.71.25-.82.61l-.58 2.11c-.07.24.11.48.36.48h2.07c.25 0 .43-.24.36-.48l-.57-2.11Z"/><path fill="#8B5C56" d="M14.116 16.835 15.07 16H17l.83.942c-.19.507-.5.968-.91 1.338l-.65.58c-.16.14-.39.14-.55 0l-.65-.58a3.468 3.468 0 0 1-.954-1.445Z"/><path fill="#2D242D" d="M22.38 5.29c-.3-.52-.77-.88-1.29-1.06a2.56 2.56 0 0 1-1.38-1.08 2.377 2.377 0 0 0-2.97-.96c-.39.17-.83.17-1.22 0-.29-.12-.61-.19-.94-.19-.85 0-1.59.44-2.01 1.11-.33.52-.83.92-1.41 1.12-.55.19-1.03.58-1.33 1.13a2.4 2.4 0 0 0 .15 2.48c.18.26.27.56.27.88v4.17c0 .93.59 1.76 1.47 2.06l1.89.65V8.17c.15-.15.28-.31.39-.5.17-.29.27-.61.3-.92a2.32 2.32 0 0 0 1.82-.55c.42.35.95.57 1.54.57.1 0 .19-.01.28-.02a2.373 2.373 0 0 0 .68 1.42v7.43l1.89-.65c.88-.3 1.47-1.13 1.47-2.06V8.72c0-.31.1-.62.28-.88.52-.73.6-1.72.12-2.55Z"/><path fill="#966661" d="m12.113 5.556 2.477.404a10.26 10.26 0 0 0 2.403.072c.435.354.987.558 1.567.558h1.43c.8.04 1.43.71 1.41 1.52l-.011.483-.31 4.967A3.96 3.96 0 0 1 17.15 17h-1.9a3.96 3.96 0 0 1-3.93-3.44l-.359-5.482a3.403 3.403 0 0 1 1.153-2.522Z"/><path fill="#8B5C56" d="M11.016 8.932a1.67 1.67 0 0 0 .204 3.328h.014l.652-1.67-.87-1.658ZM21.161 12.254a1.67 1.67 0 0 0 .205-3.298L19.73 10.59l1.431 1.664Z"/><path fill="#966661" d="m12.113 5.556 2.477.404a10.26 10.26 0 0 0 2.403.072c.435.354.987.558 1.567.558h1.43c.8.04 1.43.71 1.41 1.52l-.011.483-.31 4.967A3.96 3.96 0 0 1 17.15 17h-1.9a3.96 3.96 0 0 1-3.93-3.44l-.359-5.482a3.403 3.403 0 0 1 1.153-2.522Z"/><path fill="#990838" d="M16.13 13.69c-.54 0-1.05-.13-1.48-.36-.15-.08-.3.09-.21.23.36.55.98.92 1.69.92s1.33-.37 1.69-.92c.09-.14-.07-.3-.21-.23-.43.23-.93.36-1.48.36Z"/><path fill="#75443E" d="m15.82 10.31-.53 1.71c-.11.35.15.71.52.71h.78c.37 0 .63-.36.52-.71l-.53-1.71c-.11-.37-.65-.37-.76 0Z"/><path fill="#fff" d="M12.3 10.28c.16-.62.72-1.08 1.39-1.08.69 0 1.27.5 1.4 1.15a.23.23 0 0 1-.23.28h-2.28c-.18 0-.32-.17-.28-.35ZM19.97 10.28c-.16-.62-.72-1.08-1.39-1.08-.7 0-1.27.5-1.39 1.15-.03.15.08.28.23.28h2.28c.18 0 .31-.17.27-.35Z"/><path fill="#7D4533" d="M12.99 10.39c0-.5.41-.91.91-.91a.915.915 0 0 1 .88 1.15h-1.76a.986.986 0 0 1-.03-.24ZM19.28 10.39c0-.5-.41-.91-.91-.91a.9.9 0 0 0-.91.91c0 .08.01.16.03.24h1.76c.02-.08.03-.16.03-.24Z"/><path fill="#000" d="M13.9 9.87a.516.516 0 0 1 .46.76h-.92a.516.516 0 0 1 .46-.76ZM18.37 9.87a.516.516 0 0 0-.46.76h.92a.516.516 0 0 0-.46-.76Z"/><path fill="#fff" d="M13.75 10.03a.16.16 0 1 1-.32 0 .16.16 0 0 1 .32 0ZM18.24 10.03a.16.16 0 1 1-.32 0 .16.16 0 0 1 .32 0Z"/><path fill="#1C1C1C" d="M24.11 3.6h-2.764l.974 1.59-4.66.76c-1.02.16-2.05.16-3.07.01L9.93 5.2l.98-1.6H8.14c-.44 0-.8-.36-.8-.8 0-.44.36-.8.8-.8H24.1c.44 0 .8.36.8.8h.01v8.88a.86.86 0 1 1-.8 0V3.6Z"/><path fill="#372128" d="M12.435 8.006a.274.274 0 1 0 .337.432l.095-.062a2.264 2.264 0 0 1 1.405-.292.274.274 0 0 0 .064-.544 2.812 2.812 0 0 0-1.75.366l-.15.1ZM19.808 8.034a.274.274 0 0 1-.336.432l-.002-.001a2.09 2.09 0 0 0-.398-.21 2.264 2.264 0 0 0-1.1-.143.274.274 0 1 1-.064-.544 2.812 2.812 0 0 1 1.75.366 1.945 1.945 0 0 1 .137.09l.009.006.003.003h.001Z"/></svg>
